assets/X-ray/Flat/x-ray_flat.svg

<svg width="32" height="32" viewBox="0 0 32 32" fill="none" xmlns="http://www.w3.org/2000/svg">
<path d="M26.5 30H19.3151L18.2704 29.3077L17.2257 30H14.8148L13.816 29.3077L12.8172 30H5.5C5.33207 29.4336 5.03805 29.2504 4.71213 29.1469C4.40793 29.0504 4.00035 29.1469 3.61772 29.4336C2.65195 28.8034 2 27.7128 2 26.5V5.5C2 3.6 3.6 2 5.5 2H26.5C28.4 2 30 3.6 30 5.5V26.5C30 27.683 29.3797 28.7497 28.4529 29.3863C28.086 29.0781 27.5566 28.9744 27.2595 29.0781C26.9066 29.2012 26.7084 29.3863 26.5 30Z" fill="#321B41"/>
<path d="M26.5799 29.9991C26.4648 29.9064 26.3041 29.7926 26.0919 29.6756C25.5189 29.3594 24.5357 29 23 29C21.4853 29 20.4279 29.3988 19.7652 29.7716C19.6265 29.8496 19.5043 29.927 19.3982 30H17.1202C17.0641 29.7245 17.1242 29.4279 17.3076 29.19L17.3318 29.1598L17.3332 29.1581L17.3348 29.1561C17.3473 29.1413 17.3601 29.1268 17.373 29.1123C17.3931 29.0899 17.4196 29.0612 17.4527 29.027C17.5187 28.9588 17.6111 28.8688 17.7307 28.7647C17.9698 28.5564 18.3188 28.2905 18.7847 28.0284C19.7221 27.5012 21.1146 27 23 27C24.8643 27 26.1811 27.4406 27.0581 27.9244C27.4934 28.1646 27.8122 28.411 28.0306 28.6088C28.1397 28.7076 28.2236 28.7941 28.2844 28.8616C28.3244 28.9058 28.3992 28.9989 28.3992 28.9989L28.4 29C28.4725 29.0967 28.5248 29.2022 28.5578 29.3115C27.9964 29.7274 27.312 29.9817 26.5799 29.9991Z" fill="#B4F6FC"/>
<path d="M14.9798 30C15.0359 29.7245 14.9758 29.4279 14.7924 29.19C14.7847 29.1801 14.7763 29.1695 14.7682 29.1598L14.7668 29.1581L14.7651 29.1561C14.7526 29.1413 14.7399 29.1268 14.727 29.1123C14.7069 29.0899 14.6804 29.0612 14.6473 29.027C14.5813 28.9588 14.4889 28.8688 14.3693 28.7647C14.1302 28.5564 13.7812 28.2905 13.3153 28.0284C12.3779 27.5012 10.9853 27 9.1 27C7.23572 27 5.91889 27.4406 5.04192 27.9244C4.60658 28.1646 4.28779 28.411 4.06935 28.6088C3.96025 28.7076 3.87637 28.7941 3.81557 28.8616C3.77563 28.9058 3.70081 28.9989 3.70081 28.9989L3.7 29C3.61425 29.1143 3.55669 29.2411 3.52612 29.3718C4.09196 29.7664 4.77408 30 5.5 30H5.51889C5.6341 29.9072 5.79517 29.793 6.00808 29.6756C6.58111 29.3594 7.56428 29 9.1 29C10.6147 29 11.6721 29.3988 12.3347 29.7716C12.4734 29.8496 12.5957 29.927 12.7018 30H14.9798Z" fill="#B4F6FC"/>
<path d="M25 13C25 16.1389 23.412 17.3073 21 17.7421V20.5C21 21.3284 20.3284 22 19.5 22C18.6716 22 18 21.3284 18 20.5V19H17V21C17 21.5523 16.5523 22 16 22C15.4477 22 15 21.5523 15 21V19H14V20.5C14 21.3284 13.3284 22 12.5 22C11.6716 22 11 21.3284 11 20.5V17.7421C8.58803 17.3073 7 16.1389 7 13C7 8 11.0294 4 16 4C20.9706 4 25 8 25 13Z" fill="#B4F6FC"/>
<path d="M15 23C14.4477 23 14 23.4477 14 24C14 24.5523 14.4477 25 15 25H17C17.5523 25 18 24.5523 18 24C18 23.4477 17.5523 23 17 23H15Z" fill="#B4F6FC"/>
<path d="M14 27C14 26.4477 14.4477 26 15 26H17C17.5523 26 18 26.4477 18 27C18 27.5523 17.5523 28 17 28H15C14.4477 28 14 27.5523 14 27Z" fill="#B4F6FC"/>
<path d="M14.5 13.4592C14.5 15.0918 13.1552 15.5 11.5 15.5C9.84483 15.5 8.5 15.0918 8.5 13.4592C8.5 11.8265 9.84483 10.5 11.5 10.5C13.1552 10.5 14.5 11.8265 14.5 13.4592Z" fill="#00A6ED"/>
<path d="M23.5 13.4592C23.5 15.0918 22.1552 15.5 20.5 15.5C18.8448 15.5 17.5 15.0918 17.5 13.4592C17.5 11.8265 18.8448 10.5 20.5 10.5C22.1552 10.5 23.5 11.8265 23.5 13.4592Z" fill="#00A6ED"/>
<path d="M15.3 16.9H16.6C17 16.9 17.2 16.6 16.9 16.3L16.7 15.6C16.6 15.2 16.3 15 15.9 15C15.6 15 15.2 15.2 15.1 15.6L14.9 16.3C14.8 16.6 15 16.9 15.3 16.9Z" fill="#00A6ED"/>
</svg>

<svg xmlns="http://www.w3.org/2000/svg" width="32" height="32" fill="none"><path fill="#321B41" d="M26.5 30h-7.185l-1.045-.692-1.044.692h-2.411l-.999-.692-.999.692H5.5c-.168-.566-.462-.75-.788-.853-.304-.097-.712 0-1.094.287C2.652 28.804 2 27.713 2 26.5v-21C2 3.6 3.6 2 5.5 2h21C28.4 2 30 3.6 30 5.5v21c0 1.183-.62 2.25-1.547 2.886-.367-.308-.896-.412-1.194-.308-.352.123-.55.308-.759.922Z"/><path fill="#B4F6FC" d="M26.58 30a3.378 3.378 0 0 0-.488-.324C25.519 29.359 24.536 29 23 29c-1.515 0-2.572.399-3.235.772-.139.078-.26.155-.367.228H17.12a.998.998 0 0 1 .188-.81l.024-.03.001-.002.002-.002a2.258 2.258 0 0 1 .118-.129c.066-.068.158-.158.278-.262.239-.209.588-.474 1.054-.737C19.722 27.501 21.115 27 23 27c1.864 0 3.181.44 4.058.924.435.24.754.487.973.685.109.099.193.185.253.253.04.044.115.137.115.137L28.4 29a1 1 0 0 1 .158.311A3.46 3.46 0 0 1 26.58 30ZM14.98 30a.998.998 0 0 0-.212-.84l-.001-.002-.002-.002a2.253 2.253 0 0 0-.118-.129 4.494 4.494 0 0 0-.278-.262 6.338 6.338 0 0 0-1.054-.737C12.378 27.501 10.985 27 9.1 27c-1.864 0-3.181.44-4.058.924-.435.24-.754.487-.973.685-.109.099-.193.185-.253.253-.04.044-.115.137-.115.137L3.7 29a.997.997 0 0 0-.174.372A3.448 3.448 0 0 0 5.5 30h.019c.115-.093.276-.207.49-.324C6.58 29.359 7.563 29 9.1 29c1.515 0 2.572.399 3.235.772.138.078.26.155.367.228h2.278ZM25 13c0 3.139-1.588 4.307-4 4.742V20.5a1.5 1.5 0 0 1-3 0V19h-1v2a1 1 0 1 1-2 0v-2h-1v1.5a1.5 1.5 0 0 1-3 0v-2.758C8.588 17.307 7 16.14 7 13c0-5 4.03-9 9-9s9 4 9 9ZM15 23a1 1 0 1 0 0 2h2a1 1 0 1 0 0-2h-2ZM14 27a1 1 0 0 1 1-1h2a1 1 0 1 1 0 2h-2a1 1 0 0 1-1-1Z"/><path fill="#00A6ED" d="M14.5 13.46c0 1.632-1.345 2.04-3 2.04s-3-.408-3-2.04c0-1.634 1.345-2.96 3-2.96s3 1.326 3 2.96ZM23.5 13.46c0 1.632-1.345 2.04-3 2.04s-3-.408-3-2.04c0-1.634 1.345-2.96 3-2.96s3 1.326 3 2.96ZM15.3 16.9h1.3c.4 0 .6-.3.3-.6l-.2-.7c-.1-.4-.4-.6-.8-.6-.3 0-.7.2-.8.6l-.2.7c-.1.3.1.6.4.6Z"/></svg>
